X:458
T: Qingqing gaoshan baishi yan
N: C1493
O: China, Yunnan, Nanhua
S: II, 81]
R: Shange. Nann qing]
M: 4/4
L: 1/16
K: C
E4 | A8-A6cd | e12d4
e2e2g2a2a2d2d2g2 | e2d2c2E2A6-A
c | d2cAd2cAc2E2G2A2 | E4D12
c8-c6A2 | cAe2d2e2e3dc2A2 | cdc6AGE6
A2A2G2A2D8 | d8-d6cA
c2EGG2A2A2D2G2A2 | E2D2D2E2A,8

